!!!COM:	Bach, Johann Sebastian
!!!CDT:	1685/02/21/-1750/07/28/
!!!OTL@@DE:	Wenn wir in h&ouml;chsten N&ouml;ten sein
!!!SCT:	BWV 431
!!!PC#:	68
!!!AGN:	chorale
**harm	**kern	**kern	**kern	**kern
*	*ICvox	*ICvox	*ICvox	*ICvox
*	*Ibass	*Itenor	*Ialto	*Isoprn
*	*I"Bass	*I"Tenor	*I"Alto	*I"Soprano
*	*	*oclefC4	*oclefC3	*oclefC1
*	*clefF4	*clefGv2	*clefG2	*clefG2
*[b-]	*k[b-]	*k[b-]	*k[b-]	*k[b-]
*F:	*F:	*F:	*F:	*F:
*M4/4	*M4/4	*M4/4	*M4/4	*M4/4
*met(c)	*met(c)	*met(c)	*met(c)	*met(c)
*MM100	*MM100	*MM100	*MM100	*MM100
I	4F	4A	4c	4f
=1	=1	=1	=1	=1
viio6/V	4D	4F	4B	4f
V65	4E	4B-X	4c	4g
I	4F	4A	4c	4a
V	4C	4c	4e	4g
=2	=2	=2	=2	=2
IV6	8DL	8FL	8fL	8b-L
V65	8EJ	8cJ	8gJ	8b-J
I	4F	4c	4f	4a
ii65	4BB-	4d	4f	4g
V7	4C	4B-	4e	4g
=3	=3	=3	=3	=3
I;	2FF;	2A;	2c;	2f;
.	4r	4ry	4ry	4r
I	8FL	8cL	8fL	8aL
V2/IV	8E-J	8cJ	8fJ	8aJ
=4	=4	=4	=4	=4
IV6	8DL	8dL	8fL	8b-L
V65	8EnXJ	8cJ	8gJ	8b-J
I	4F	4c	4f	4a
C:V65	8BBnxL	8dL	8fL	8gL
I	8CJ	8cJ	8eJ	8gJ
viio6	4D	4BnX	4d	4f
=5	=5	=5	=5	=5
I	8CL	8cL	8GL	8eL
V2/IV	8BB-XJ	8cJ	8GJ	8eJ
IV6	4AA	4F	4c	4f
I;	4C;	4E;	4c;	4g;
vi	8AAL	8AL	8eL	8ccL
g:viio6	8AAJ	8AJ	8f#J	8ccJ
=6	=6	=6	=6	=6
i	8GGL	8dL	8gL	8b-L
viio43/V	8GGJ	8c#J	8eJ	8b-J
v	4D	4d	4fnXL	4a
C:V65	4BB	4G	4d	4f
I	4C	4G	4c	4e
=7	=7	=7	=7	=7
IV	4FF	4A	4c	4f
V7	4GG	4F	4B	4d
I;	4C;	4E;	4G;	4c;
F:I	8FFL	8cL	8fL	8aL
V2/IV	8FFJ	8cJ	8e-J	8aJ
=8	=8	=8	=8	=8
ii	8GGL	8B-XL	8dL	8b-L
viio6	8GGJ	8B-J	8eJ	8b-J
I6	4AA	4c	4f	4a
V7	4C	4B-	4e	4g
vi	4D	4A	4d	4f
=9	=9	=9	=9	=9
I6	4AA	4c	4f	4a
V7	4C	4B-	4e	4g
I;	4FF;	4A;	4c;	4f;
==	==	==	==	==
*-	*-	*-	*-	*-
!!!YOR1: 371 vierstimmige Choralges&auml;nge von Johann Sebastian Bach, 
!!!YOR2: 4th ed. by Alfred D&ouml;rffel (Leipzig: Breitkopf und H&auml;rtel, 
!!!YOR2: c.1875). 178 pp. Plate "V.A.10".  reprint: J.S. Bach, 371 Four-Part 
!!!YOR4: Chorales (New York: Associated Music Publishers, Inc., c.1940).
!!!SMS: B&H, 4th ed, Alfred D&ouml;rffel, c.1875, plate V.A.10
!!!EED:  Craig Stuart Sapp
!!!EEV:  2009/05/22
